static/logos/stoplight-wordmark-color.svg

<svg width="100" height="20" viewBox="0 0 100 20" fill="none" xmlns="http://www.w3.org/2000/svg">
<g clip-path="url(#clip0_1_912)">
<path fill-rule="evenodd" clip-rule="evenodd" d="M67.6019 1.0512C67.058 1.27647 66.6788 1.91019 66.7644 2.45002C66.9986 3.9232 69.0738 3.91053 69.3086 2.43427C69.3757 2.01258 69.3243 1.86101 68.9906 1.49894C68.553 1.02404 68.055 0.863413 67.6019 1.0512ZM62.3943 8.09206V14.7093H63.3694H64.3442V8.09206V1.47484H63.3694H62.3943V8.09206ZM83.7046 8.09206V14.7093H84.6794H85.6545V12.0117C85.6545 10.5282 85.7178 8.97654 85.795 8.56375C86.0403 7.25564 86.7352 6.61008 87.9965 6.51883C89.0167 6.44499 89.7989 6.80482 90.2715 7.56532C90.5874 8.07352 90.6006 8.20825 90.643 11.4007L90.6869 14.7093H91.7366H92.786L92.7239 11.2614C92.674 8.48755 92.616 7.6893 92.4274 7.17873C91.8667 5.66053 90.5274 4.77035 88.8091 4.77384C87.7388 4.77592 86.5901 5.15902 86.1303 5.66695C85.9981 5.81323 85.837 5.93275 85.7722 5.93275C85.7073 5.93275 85.6545 4.92973 85.6545 3.7038V1.47484H84.6794H83.7046V8.09206ZM23.8161 2.44388C22.8816 2.76652 21.8253 3.80312 21.5987 4.61989C21.2303 5.94696 21.5499 7.17819 22.4732 7.98909C23.0845 8.52586 23.6051 8.75614 25.2624 9.22227C27.3993 9.82339 27.9915 10.2636 27.9915 11.2509C27.9915 12.4403 27.2173 13.1055 25.8327 13.1057C24.7674 13.1058 24.135 12.7563 23.7479 11.9526L23.4653 11.3658H22.4552C21.4675 11.3658 21.4453 11.3735 21.4453 11.7186C21.4453 13.0626 22.8306 14.3714 24.6196 14.7176C27.3293 15.2417 29.7175 13.8493 30.0165 11.5713C30.1452 10.5902 29.8916 9.78481 29.2264 9.06305C28.6343 8.42055 27.9734 8.11602 25.5847 7.38576C24.0507 6.9167 23.5346 6.48581 23.5346 5.67447C23.5346 4.86006 23.7771 4.44256 24.4358 4.12382C25.6577 3.53202 27.1153 3.98952 27.5795 5.11069C27.744 5.50827 27.7644 5.51482 28.8442 5.51482C30.1176 5.51482 30.1457 5.47137 29.6108 4.32289C29.2019 3.44412 28.2876 2.64671 27.3805 2.37715C26.4118 2.08948 24.7527 2.12054 23.8161 2.44388ZM32.7273 3.63415V4.81829H32.1702H31.613V5.65414V6.49H32.1629H32.7128L32.7549 9.72894C32.8021 13.3687 32.868 13.6587 33.793 14.2885C34.2348 14.5893 34.4872 14.641 35.7425 14.6875L37.1842 14.7409V13.8891V13.0376H36.31C34.7769 13.0376 34.8163 13.1298 34.8163 9.54687V6.49H36.0004H37.1842V5.72379V4.95759H36.0004H34.8163V3.7038V2.45002H33.7717H32.7273V3.63415ZM95.5435 3.63415V4.81829H94.9863H94.4292V5.65414V6.49H94.9773H95.5253L95.5693 9.79859C95.6187 13.5166 95.6663 13.7214 96.6192 14.3104C97.0586 14.5821 97.3775 14.6438 98.5725 14.6879L100.001 14.7409V13.8891V13.0376H99.1264C97.5933 13.0376 97.6328 13.1298 97.6328 9.54687V6.49H98.8168H100.001V5.72379V4.95759H98.8168H97.6328V3.7038V2.45002H96.5881H95.5435V3.63415ZM42.2479 4.81591C41.3855 4.99827 40.3073 5.5931 39.6951 6.22404C37.8014 8.17577 37.8959 11.7411 39.8896 13.5723C40.9408 14.5379 41.6056 14.777 43.2429 14.7779C44.4881 14.7788 44.7289 14.7359 45.5133 14.3737C46.5065 13.9149 47.4081 13.0119 47.9213 11.9621C48.1978 11.3958 48.2474 11.0769 48.252 9.83091C48.257 8.45092 48.2307 8.31174 47.7993 7.43522C47.0006 5.81183 45.6135 4.90618 43.7028 4.7606C43.22 4.72395 42.5654 4.74875 42.2479 4.81591ZM54.8601 4.80183C54.2105 4.93794 53.2309 5.44641 52.7574 5.8936L52.3828 6.24746L52.3395 5.56776L52.2964 4.88794H51.3213H50.3465L50.3102 12.1669L50.2742 19.4458H51.3202H52.366V16.4389V13.4321L52.8884 13.8426C53.8048 14.563 54.3188 14.7547 55.4999 14.8169C56.9317 14.8923 57.9863 14.5283 58.856 13.6584C61.8853 10.6286 60.2282 5.08674 56.1962 4.76393C55.7366 4.72717 55.1355 4.74417 54.8601 4.80183ZM74.6158 4.82203C73.2075 5.17601 72.0958 6.08905 71.4208 7.44621C71.1391 8.01264 70.98 8.59741 70.9687 9.75763C70.9573 10.9179 71.126 11.487 71.4918 12.2017C71.9902 13.1746 72.7198 13.9355 73.6065 14.4072C74.2193 14.7331 74.4619 14.7777 75.6262 14.7782C77.0525 14.7789 77.4036 14.6625 78.4467 13.8426L78.9689 13.4321V14.6189C78.9689 15.9534 78.8395 16.4115 78.2984 16.9902C77.7794 17.5455 77.1686 17.7741 76.2037 17.7741C75.1502 17.7741 74.0183 17.2266 73.6885 16.5573C73.4696 16.1132 73.4571 16.1086 72.4424 16.1056L71.4174 16.1024L71.5131 16.4855C71.7005 17.2383 72.0489 17.788 72.7225 18.3936C73.6695 19.2453 74.5226 19.5159 76.2529 19.5136C77.4571 19.512 77.7504 19.4629 78.4183 19.1513C79.4827 18.6544 80.291 18.0946 80.7488 17.1622C80.7488 17.1622 80.9886 16.6557 80.9886 16.3113C80.9886 14.227 81.0292 10.5585 81.0292 10.5585L81.07 4.80587L80.0543 4.84684L79.0387 4.88794L78.9689 5.56051L78.8993 6.23297L78.4999 5.81434C77.7087 4.98504 75.8535 4.51096 74.6158 4.82203ZM66.9906 9.75763V14.7093H68.0371H69.0836L69.0469 9.79859L69.0104 4.88794L68.0004 4.84698L66.9906 4.80602V9.75763ZM44.3966 6.70634C45.6133 7.21468 46.2304 8.24236 46.2332 9.76378C46.2345 10.5049 46.1541 10.9122 45.8986 11.4614C44.9215 13.5604 41.8374 13.6674 40.8023 11.6381C40.4351 10.9182 40.308 9.63157 40.5178 8.75725C40.9362 7.01226 42.7869 6.0339 44.3966 6.70634ZM56.7347 6.83576C58.8517 7.85217 58.8637 11.6245 56.7533 12.7247C55.5201 13.3674 54.2921 13.1865 53.322 12.219C52.6148 11.5138 52.368 10.8834 52.3669 9.77994C52.3651 8.38753 52.958 7.34172 54.0691 6.77697C54.7867 6.41226 55.9038 6.43692 56.7347 6.83576ZM77.2279 6.75412C78.3669 7.28155 78.9974 8.3499 79.012 9.77715C79.0378 12.322 76.8361 13.8412 74.7087 12.7464C73.711 12.2327 73.208 11.3625 73.1409 10.0328C73.0804 8.83458 73.2672 8.1808 73.8639 7.50097C74.7082 6.53902 76.0974 6.23059 77.2279 6.75412Z" fill="black"/>
<path d="M9 19.0923C13.9706 19.0923 18 15.0628 18 10.0923C18 5.12172 13.9706 1.09229 9 1.09229C4.02944 1.09229 0 5.12172 0 10.0923C0 15.0628 4.02944 19.0923 9 19.0923Z" fill="#139EF3"/>
<path fill-rule="evenodd" clip-rule="evenodd" d="M9.00233 4.3476C9.23564 4.3476 9.42478 4.53476 9.42478 4.76565V5.10009H12.388C13.1546 5.10009 13.776 5.71508 13.776 6.4737V7.72621C13.776 7.86877 13.8333 8.00548 13.9351 8.10629L14.1696 8.33832C14.4288 8.59487 14.4288 9.01083 14.1696 9.26738L13.9351 9.49941C13.8333 9.60022 13.776 9.73693 13.776 9.87949V11.0365C13.776 11.2673 13.5869 11.4545 13.3536 11.4545C13.1203 11.4545 12.9311 11.2673 12.9311 11.0365V9.87949C12.9311 9.51519 13.0774 9.16581 13.3377 8.90819L13.4441 8.80285L13.3377 8.69751C13.0774 8.43989 12.9311 8.09052 12.9311 7.72621V6.4737C12.9311 6.17685 12.6879 5.9362 12.388 5.9362H5.61668C5.31671 5.9362 5.07353 6.17685 5.07353 6.4737V7.72621C5.07353 8.09052 4.92729 8.43989 4.66697 8.69751L4.56052 8.80285L4.66697 8.90819C4.92729 9.16581 5.07353 9.51519 5.07353 9.87949V10.9767C5.07353 11.2736 5.31671 11.5142 5.61668 11.5142H11.4827C12.2493 11.5142 12.8708 12.1292 12.8708 12.8878V15.0378C12.8708 15.7964 12.2493 16.4114 11.4827 16.4114H6.70298C5.93639 16.4114 5.31493 15.7964 5.31493 15.0378V14.0345C5.31493 13.8036 5.50407 13.6164 5.73738 13.6164C5.97069 13.6164 6.15983 13.8036 6.15983 14.0345V15.0378C6.15983 15.3347 6.40302 15.5753 6.70298 15.5753H11.4827C11.7827 15.5753 12.0259 15.3347 12.0259 15.0378V12.8878C12.0259 12.591 11.7827 12.3503 11.4827 12.3503H5.61668C4.85009 12.3503 4.22862 11.7353 4.22862 10.9767V9.87949C4.22862 9.73693 4.1714 9.60022 4.06953 9.49941L3.83506 9.26738C3.57581 9.01083 3.57581 8.59487 3.83506 8.33832L4.06953 8.10629C4.1714 8.00548 4.22862 7.86877 4.22862 7.72621V6.4737C4.22862 5.71508 4.85009 5.10009 5.61668 5.10009H8.57988V4.76565C8.57988 4.53476 8.76901 4.3476 9.00233 4.3476Z" fill="white"/>
<path d="M7.37334 8.94335C7.74349 8.94335 8.04355 8.60042 8.04355 8.1774C8.04355 7.75437 7.74349 7.41144 7.37334 7.41144C7.00319 7.41144 6.70312 7.75437 6.70312 8.1774C6.70312 8.60042 7.00319 8.94335 7.37334 8.94335Z" fill="white"/>
<path d="M10.6312 8.94335C11.0013 8.94335 11.3014 8.60042 11.3014 8.1774C11.3014 7.75437 11.0013 7.41144 10.6312 7.41144C10.261 7.41144 9.96094 7.75437 9.96094 8.1774C9.96094 8.60042 10.261 8.94335 10.6312 8.94335Z" fill="white"/>
<path fill-rule="evenodd" clip-rule="evenodd" d="M9.0005 3.49548C8.81014 3.49548 8.65582 3.66266 8.65582 3.86889C8.65582 4.07511 8.81014 4.24229 9.0005 4.24229C9.19086 4.24229 9.34518 4.07511 9.34518 3.86889C9.34518 3.66266 9.19086 3.49548 9.0005 3.49548ZM7.85156 3.86889C7.85156 3.18147 8.36596 2.62421 9.0005 2.62421C9.63504 2.62421 10.1494 3.18147 10.1494 3.86889C10.1494 4.55631 9.63504 5.11357 9.0005 5.11357C8.36596 5.11357 7.85156 4.55631 7.85156 3.86889Z" fill="white"/>
</g>
<defs>
<clipPath id="clip0_1_912">
<rect width="100" height="19.515" fill="white"/>
</clipPath>
</defs>
</svg>

<svg xmlns="http://www.w3.org/2000/svg" width="320" height="64" fill="none" viewBox="0 0 100 20"><g clip-path="url(#a)"><path fill="#000" fill-rule="evenodd" d="M67.602 1.051c-.544.225-.923.86-.838 1.399.235 1.473 2.31 1.46 2.545-.016.067-.421.015-.573-.318-.935-.438-.475-.936-.636-1.39-.448Zm-5.208 7.041v6.617h1.95V1.475h-1.95v6.617Zm21.31 0v6.617h1.95v-2.697c0-1.484.064-3.035.141-3.448.245-1.308.94-1.954 2.201-2.045 1.02-.074 1.803.286 2.276 1.046.315.509.329.643.371 3.836l.044 3.308h2.099l-.062-3.448c-.05-2.773-.108-3.572-.297-4.082-.56-1.518-1.9-2.409-3.618-2.405-1.07.002-2.219.385-2.679.893-.132.146-.293.266-.358.266s-.118-1.003-.118-2.23V1.476H83.706v6.617ZM23.817 2.444c-.934.323-1.99 1.36-2.217 2.176-.369 1.327-.05 2.558.874 3.37.611.536 1.132.766 2.79 1.232 2.136.601 2.728 1.042 2.728 2.029 0 1.19-.774 1.854-2.158 1.855-1.066 0-1.698-.35-2.085-1.153l-.283-.587h-1.01c-.987 0-1.01.008-1.01.353 0 1.344 1.386 2.652 3.175 2.999 2.71.524 5.098-.869 5.396-3.147.13-.98-.124-1.786-.79-2.508-.592-.642-1.253-.947-3.641-1.677-1.534-.47-2.05-.9-2.05-1.712 0-.814.242-1.231.9-1.55 1.223-.592 2.68-.134 3.145.987.164.397.184.404 1.264.404 1.274 0 1.302-.044.767-1.192-.41-.879-1.323-1.676-2.23-1.946-.97-.288-2.628-.256-3.565.067Zm8.911 1.19v1.184h-1.114V6.49h1.1l.042 3.239c.047 3.64.113 3.93 1.038 4.56.442.3.694.352 1.95.399l1.441.053V13.038h-.874c-1.533 0-1.494.092-1.494-3.491V6.49h2.368V4.958h-2.368V2.45h-2.089v1.184Zm62.816 0v1.184H94.43V6.49h1.096l.044 3.309c.05 3.718.097 3.922 1.05 4.511.44.272.758.334 1.954.378l1.428.053V13.038h-.875c-1.533 0-1.493.092-1.493-3.491V6.49H100V4.958h-2.368V2.45h-2.089v1.184ZM42.248 4.816c-.862.182-1.94.777-2.553 1.408-1.894 1.952-1.8 5.517.195 7.348 1.05.966 1.716 1.205 3.353 1.206 1.245 0 1.486-.042 2.27-.404.994-.46 1.895-1.362 2.408-2.412.277-.566.326-.885.331-2.131.005-1.38-.021-1.52-.453-2.396-.798-1.623-2.185-2.529-4.096-2.674-.483-.037-1.138-.012-1.455.055Zm12.612-.014c-.65.136-1.63.644-2.103 1.092l-.374.353-.044-.68-.043-.68H50.347l-.037 7.28-.036 7.279h2.092v-6.014l.522.41c.917.721 1.43.913 2.612.975 1.432.075 2.486-.289 3.356-1.159 3.03-3.03 1.372-8.571-2.66-8.894-.46-.037-1.06-.02-1.336.038Zm19.756.02c-1.409.354-2.52 1.267-3.195 2.624-.282.567-.441 1.151-.452 2.312-.012 1.16.157 1.729.523 2.444.498.973 1.228 1.733 2.114 2.205.613.326.856.37 2.02.371 1.426 0 1.778-.116 2.82-.935l.523-.41v1.186c0 1.334-.13 1.793-.67 2.371-.52.556-1.13.784-2.095.784-1.054 0-2.186-.547-2.515-1.217-.22-.444-.232-.448-1.247-.451l-1.025-.004.096.383c.188.753.536 1.303 1.21 1.909.947.851 1.8 1.122 3.53 1.12 1.204-.002 1.497-.051 2.165-.363 1.065-.497 1.873-1.056 2.33-1.989 0 0 .24-.506.24-.85 0-2.085.041-5.754.041-5.754l.041-5.752-1.016.04-1.015.042-.07.673-.07.672-.4-.419c-.79-.829-2.645-1.303-3.883-.992ZM66.99 9.758v4.951h2.093l-.037-4.91-.037-4.911L68 4.847l-1.01-.041v4.952ZM44.397 6.706c1.216.509 1.833 1.536 1.836 3.058.002.74-.079 1.148-.334 1.697-.977 2.1-4.062 2.206-5.097.177-.367-.72-.494-2.006-.284-2.88.418-1.746 2.269-2.724 3.879-2.052Zm12.338.13c2.117 1.016 2.129 4.788.018 5.889-1.233.642-2.46.462-3.431-.506-.707-.705-.954-1.336-.955-2.44-.002-1.391.591-2.437 1.702-3.002.718-.365 1.835-.34 2.666.059Zm20.493-.082c1.139.528 1.77 1.596 1.784 3.023.026 2.545-2.176 4.064-4.303 2.97-.998-.514-1.501-1.384-1.568-2.714-.06-1.198.126-1.852.723-2.532.844-.962 2.233-1.27 3.364-.747Z" clip-rule="evenodd"/><path fill="#139EF3" d="M9 19.092a9 9 0 1 0 0-18 9 9 0 0 0 0 18Z"/><path fill="#fff" fill-rule="evenodd" d="M9.002 4.348a.42.42 0 0 1 .423.418V5.1h2.963a1.38 1.38 0 0 1 1.388 1.374v1.252c0 .143.057.28.16.38l.234.232c.259.257.259.673 0 .93l-.235.231a.535.535 0 0 0-.159.38v1.158a.42.42 0 0 1-.422.417.42.42 0 0 1-.423-.418V9.88c0-.364.146-.713.407-.97l.106-.106-.106-.105a1.367 1.367 0 0 1-.407-.972V6.474a.54.54 0 0 0-.543-.538H5.617a.54.54 0 0 0-.543.538v1.252c0 .365-.147.714-.407.972l-.106.105.106.105c.26.258.407.607.407.971v1.098a.54.54 0 0 0 .543.537h5.866a1.38 1.38 0 0 1 1.388 1.374v2.15a1.38 1.38 0 0 1-1.388 1.373h-4.78a1.38 1.38 0 0 1-1.388-1.373v-1.004c0-.23.19-.418.422-.418a.42.42 0 0 1 .423.418v1.004a.54.54 0 0 0 .543.537h4.78c.3 0 .543-.24.543-.537v-2.15a.54.54 0 0 0-.543-.538H5.617a1.38 1.38 0 0 1-1.388-1.373V9.879a.535.535 0 0 0-.16-.38l-.234-.232a.652.652 0 0 1 0-.929l.235-.232c.101-.1.159-.237.159-.38V6.474A1.38 1.38 0 0 1 5.617 5.1H8.58v-.334c0-.231.189-.418.422-.418Z" clip-rule="evenodd"/><path fill="#fff" d="M7.373 8.943c.37 0 .67-.343.67-.766s-.3-.766-.67-.766c-.37 0-.67.343-.67.766s.3.766.67.766ZM10.631 8.943c.37 0 .67-.343.67-.766s-.3-.766-.67-.766c-.37 0-.67.343-.67.766s.3.766.67.766Z"/><path fill="#fff" fill-rule="evenodd" d="M9 3.495c-.19 0-.344.168-.344.374s.154.373.345.373c.19 0 .344-.167.344-.373S9.191 3.495 9 3.495Zm-1.148.374c0-.688.514-1.245 1.149-1.245.634 0 1.148.557 1.148 1.245 0 .687-.514 1.245-1.148 1.245-.635 0-1.15-.558-1.15-1.245Z" clip-rule="evenodd"/></g><defs><clipPath id="a"><path fill="#fff" d="M0 0h100v19.515H0z"/></clipPath></defs></svg>
